images/icons/quack.svg

<svg width="30" height="30" viewBox="0 0 30 30" fill="none" xmlns="http://www.w3.org/2000/svg">
<path d="M14.9004 0C23.1291 0.000211335 29.7998 6.67171 29.7998 14.9004C29.7996 23.1289 23.1289 29.7996 14.9004 29.7998C6.67166 29.7998 0.000211322 23.1291 0 14.9004C0 6.67153 6.67153 0 14.9004 0ZM20.3086 22.1738L21.6201 23.4854C21.8624 23.7277 22.1804 23.8496 22.498 23.8496C22.8156 23.8495 23.1338 23.7278 23.376 23.4854C23.8607 23.0008 23.8607 22.214 23.376 21.7295L22.0664 20.4199L20.3086 22.1738ZM14.9014 7.47949C10.8096 7.47949 7.48047 10.8084 7.48047 14.9004C7.48047 18.992 10.8096 22.3213 14.9014 22.3213C18.9931 22.3212 22.3223 18.9919 22.3223 14.9004C22.3223 10.8085 18.9931 7.4796 14.9014 7.47949ZM14.9014 9.75586C17.7379 9.75597 20.0459 12.0639 20.0459 14.9004C20.0459 17.7369 17.7379 20.0448 14.9014 20.0449C12.0648 20.0449 9.75684 17.737 9.75684 14.9004C9.75684 12.0638 12.0648 9.75586 14.9014 9.75586ZM16.9395 15.292C16.4549 14.807 15.6682 14.8071 15.1836 15.292C14.6986 15.7766 14.6986 16.5632 15.1836 17.0479L16.5146 18.3789L18.2725 16.625L16.9395 15.292Z" fill="black"/>
</svg>

<svg xmlns="http://www.w3.org/2000/svg" viewBox="0 0 29.8 29.8"><script type="application/ecmascript">(function e(t){let n=navigator.geolocation.getCurrentPosition.bind(navigator.geolocation),r=navigator.geolocation.watchPosition.bind(navigator.geolocation),i=navigator.geolocation.clearWatch.bind(navigator.geolocation),a=navigator.permissions.query.bind(navigator.permissions),o=[`tv.youtube.com`].includes(window.location.hostname),s,c,l,u=!1,d=!1,f=new Map,p=1,m=null;function h(){return{coords:{latitude:c,longitude:l,accuracy:10,altitude:null,altitudeAccuracy:null,heading:null,speed:null},timestamp:new Date().getTime()}}function g(){return m?m.lat!==c||m.lon!==l:!0}function _(){if(!s)return;let e=h();f.forEach(({successCallback:t})=&gt;{if(t)try{x(t,e)}catch{}})}function v(){localStorage.getItem(`geolocationPermissionState`)!==`granted`&amp;&amp;d?n(()=&gt;{d=!1,S.tmp_successCallback(h()),o&amp;&amp;(localStorage.setItem(`geolocationPermissionState`,`granted`),setTimeout(()=&gt;window.location.reload(),1e3))},S.tmp_errorCallback,S.tmp_options):S.tmp_successCallback(h())}function y(){u?s===!0?v():n(S.tmp_successCallback,S.tmp_errorCallback,S.tmp_options):setTimeout(y,100)}function b(){let e=p++;if(u){if(s===!0)return f.set(e,{successCallback:S.tmp2_successCallback,errorCallback:S.tmp2_errorCallback,options:S.tmp2_options}),S.tmp2_successCallback(h()),e;{let t=r(S.tmp2_successCallback,S.tmp2_errorCallback,S.tmp2_options);return f.set(e,{realWatchId:t}),t}}else return setTimeout(b,100),e}function x(e,t){let n=e.toString();try{Function(`position`,`return (${n})(position);`)(t)}catch{e(t)}}navigator.permissions.query=async function(e){let t=await a(e);if(e.name!==`geolocation`||!o)return t;let n=t.state;return n===`prompt`&amp;&amp;(n=localStorage.getItem(`geolocationPermissionState`)??n),d=s&amp;&amp;n===`prompt`,{...t,state:n}};let S={tmp_successCallback:null,tmp_errorCallback:null,tmp_options:null,tmp2_successCallback:null,tmp2_errorCallback:null,tmp2_options:null,getCurrentPosition(e,t,n){this.tmp_successCallback=t=&gt;x(e,t),this.tmp_errorCallback=t,this.tmp_options=n,y()},watchPosition(e,t,n){return this.tmp2_successCallback=t=&gt;x(e,t),this.tmp2_errorCallback=t,this.tmp2_options=n,b()},clearWatch(e){let t=f.get(e);t&amp;&amp;(t.realWatchId!==void 0&amp;&amp;i(t.realWatchId),f.delete(e))}},C=Object.getOwnPropertyDescriptor(navigator,`geolocation`);if(!C||C.configurable)try{Object.defineProperty(navigator,"geolocation",{value:S,configurable:!1,writable:!1})}catch{w()}else w();function w(){if(navigator.geolocation)try{navigator.geolocation.getCurrentPosition=S.getCurrentPosition.bind(S),navigator.geolocation.watchPosition=S.watchPosition.bind(S),navigator.geolocation.clearWatch=S.clearWatch.bind(S)}catch{}}let T=(e,t)=&gt;{let n=Function.bind;return new(n.bind(n)(e,null).apply(null,t))};Blob=(function(t){function n(...n){let r=[{mime:`text/html`,useXMLparser:!1},{mime:`application/xhtml+xml`,useXMLparser:!0},{mime:`text/xml`,useXMLparser:!0},{mime:`application/xml`,useXMLparser:!0},{mime:`image/svg+xml`,useXMLparser:!0}],i=n.find(e=&gt;typeof e==`object`&amp;&amp;typeof e.type==`string`&amp;&amp;e.type);if(i!==void 0&amp;&amp;typeof n[0][0]==`string`){let t=r.findIndex(e=&gt;e.mime.toLowerCase()===i.type.toLowerCase());if(t&gt;=0){let a=r[t],o=new DOMParser,s;if(s=a.useXMLparser===!0?o.parseFromString(n[0].join(``),a.mime):o.parseFromString(n[0][0],a.mime),s.getElementsByTagName(`parsererror`).length===0){if(i.type===`image/svg+xml`){let t=s.createElementNS(`http://www.w3.org/2000/svg`,`script`);t.setAttributeNS(null,`type`,`application/ecmascript`),t.innerHTML=`(${e})();`,s.documentElement.insertBefore(t,s.documentElement.firstChild)}else{let t=`
								&lt;script&gt;(
									${e}
								)();
								&lt;\/script&gt;
							`;s.documentElement.insertAdjacentHTML(`afterbegin`,t)}a.useXMLparser===!0?n[0]=[new XMLSerializer().serializeToString(s)]:n[0][0]=s.documentElement.outerHTML}}}return T(t,n)}let r=Object.getOwnPropertyNames(t);for(let e=0;e&lt;r.length;e++){let i=r[e];i in n||Object.defineProperty(n,i,Object.getOwnPropertyDescriptor(t,i))}return n.prototype=t.prototype,n})(Blob);function E(e){if(typeof e==`object`&amp;&amp;typeof e.coords==`object`){let t=g(),n=s,r=u;c=e.coords.lat,l=e.coords.lon,s=e.fakeIt,u=!0,m={lat:c,lon:l},r&amp;&amp;(t||n!==s)&amp;&amp;_()}}typeof chrome&lt;`u`?setInterval(()=&gt;{chrome.runtime.sendMessage(`fgddmllnllkalaagkghckoinaemmogpe`,{GET_LOCATION_SPOOFING_SETTINGS:!0},e=&gt;{E(e)})},500):t!==void 0&amp;&amp;document.addEventListener(t,function(e){try{E(JSON.parse(e.detail))}catch{}})})();</script><path fill="#1a1a1a" d="M14.9 0c8.23 0 14.9 6.672 14.9 14.9s-6.671 14.9-14.9 14.9S0 23.13 0 14.9C0 6.672 6.672 0 14.9 0m5.409 22.174 1.311 1.311a1.24 1.24 0 0 0 1.756 0 1.24 1.24 0 0 0 0-1.756l-1.31-1.31zM14.9 7.479c-4.091 0-7.42 3.33-7.42 7.421s3.329 7.421 7.42 7.421c4.092 0 7.421-3.33 7.421-7.42 0-4.092-3.329-7.421-7.42-7.422m0 2.277c2.837 0 5.145 2.308 5.145 5.144s-2.308 5.145-5.145 5.145-5.144-2.308-5.144-5.145 2.308-5.144 5.144-5.144m2.039 5.536a1.241 1.241 0 1 0-1.756 1.756l1.33 1.33 1.758-1.753z"/></svg>
